icons/fill-ele-other-s-help.svg

<svg xmlns="http://www.w3.org/2000/svg" width="32px" height="32px" viewBox="0 0 32 32" version="1.1">
    <title>fill-ele-other-s-help</title>
    <g id="fill-ele-other-s-help" stroke-width="1" fill-rule="evenodd">
        <path d="M15.0001915,21.9170737 L15.0004329,28.9621433 C8.6180142,28.476837 3.52372201,23.3828536 3.037933,17.0005699 L10.0830939,17.0008069 C10.5049122,19.5129932 12.4878649,21.495669 15.0001915,21.9170737 Z M17.0005699,28.962067 L17.0008069,21.9169061 C19.5126605,21.4951437 21.4951437,19.5126605 21.9169061,17.0008069 L28.962067,17.0005699 C28.4763034,23.3825194 23.3825194,28.4763034 17.0005699,28.962067 Z M15.0004329,3.03785671 L15.0001915,10.0829263 C12.4875321,10.5043868 10.5043868,12.4875321 10.0829263,15.0001915 L3.03785671,15.0004329 C3.52318844,8.61767995 8.61767995,3.52318844 15.0004329,3.03785671 Z M28.9621433,15.0004329 L21.9170737,15.0001915 C21.495669,12.4878649 19.5129932,10.5049122 17.0008069,10.0830939 L17.0005699,3.037933 C23.3828536,3.52372201 28.476837,8.6180142 28.9621433,15.0004329 Z" id="&#24418;&#29366;" />
    </g>
</svg>

<svg xmlns="http://www.w3.org/2000/svg" viewBox="0 0 32 32"><path fill="currentColor" d="M15 21.917v7.045c-6.382-.485-11.476-5.58-11.962-11.961h7.045A6.005 6.005 0 0 0 15 21.917m2 7.045v-7.045A6.005 6.005 0 0 0 21.918 17h7.045c-.486 6.382-5.58 11.475-11.961 11.961M15 3.038v7.045A6.005 6.005 0 0 0 10.083 15H3.038C3.523 8.618 8.618 3.523 15 3.038M28.962 15h-7.045a6.005 6.005 0 0 0-4.916-4.917V3.038c6.382.486 11.476 5.58 11.961 11.962"/></svg>
